images/moonbirds.svg

<svg xmlns="http://www.w3.org/2000/svg" width="1152" height="1152" xmlns:v="https://vecta.io/nano"><style><![CDATA[.B{fill:#111}.C{fill:#1f1f1f}.D{fill:#010101}]]></style><path d="M0 0v1152h160V704h32v448h768V897h-31c0 6.622 3.241 25.552-1.603 30.397C924.13 930.663 915.241 929 911 929h-46c0 6.622 3.241 25.552-1.603 30.397C860.13 962.663 851.241 961 847 961h-46c0 6.236 3.276 27.239-2.318 30.972C793.916 995.153 782.574 993 777 993h-55-210v-32h-47c-4.241 0-13.13 1.663-16.397-1.603C443.759 954.552 447 935.622 447 929h-63v-32h-32v-32h-32v-65h-32V672h32v-32h32v-32h32v-32h32v-33h119 29c3.306 0 8.812-.981 11.397 1.603C580.347 549.554 577 569.216 577 576h32v32h32v32h63v-32h31v-32h33v-33h160v-63h-32v-32h-32v-32h32v31h32v-31h33v160h32v71c0 5.602 2.585 20.208-1.603 24.397C986.446 676.347 966.784 673 960 673v126c6.784 0 26.446-3.347 31.397 1.603C995.364 804.571 993 817.731 993 823v63 266h159V0H0z" class="D"/><path d="M544 64v32h-32v32h-32v64h32v32h32v32h64v-32h32v-32h32v-32h-32v32h-64v-32h-32V96h32V64h-32M288 256v32h-32v64h-32v64h-32v288h32V416h32v-64h32v-64h32v64h32v64h32v32h32v-64h96v-32h224v32h64v32h64v-32h-64v-32h32v-64h32v64h32v64h32v-64h-32v-64h-32v-32h-32v32h-32v64h-64v-32H512v32h-96v32h-32v-32h-32v-64h-32v-32h-32z" fill="#fff"/><path d="M384 352v32h1l-1-32m-32 64v1h32l-32-1z" class="B"/><path d="M864 416v32h32v32h32v64H768v32h-32v32h-32v32h-64v-32h-32v-32h-32v-32H416v32h-32v32h-32v32h-32v32h-32v128h32v64h32v32h32v32h64v32h64v32h288v-32h64v-32h64v-32h32v256h32V800h-32V672h32v-96h-32V416h-32v32h-32v-32h-32z" fill="#fff"/><path d="M960 416v160h1V464c0-13.515 4.206-35.593-1-48m-64 31v1h32l-32-1m-480 96v1h160c-12.407-5.206-34.485-1-48-1H416m352 0v1h160c-12.407-5.206-34.485-1-48-1H768m-192 1v32h1l-1-32m32 32v32h1l-1-32m127 0v32h1l-1-32m257 0v96h1v-67l-1-29z" class="B"/><path d="M416 608l1 1-1-1z" class="C"/><path d="M416 640c-6.823 0-24.997-3.249-30.397 1.028C380.761 644.863 384 666.02 384 672c-5.98 0-27.137-3.239-30.972 1.603C349.094 678.57 352 694.778 352 701v72c0 5.846-2.684 20.71 1.028 25.397C356.863 803.239 378.02 800 384 800v-1h-31V673c5.98 0 27.137 3.239 30.972-1.603 4.277-5.4 1.028-23.574 1.028-30.397 6.823 0 24.997 3.249 30.397-1.028C420.239 636.137 417 614.98 417 609h127c-7.879-3.306-20.466-1-29-1h-67c-6.786 0-25.012-3.237-30.397 1.028C412.761 612.863 416 634.02 416 640m224-32v32h1l-1-32z" class="B"/><path d="M800 608l1 1-1-1z" class="C"/><path d="M800 640h1v-31h159c-9.789-4.108-26.366-1-37-1h-84-27c-2.91 0-7.948-.912-10.397 1.028C796.761 612.863 800 634.02 800 640z" class="B"/><path d="M417 609v31h127v-31H417m384 0v31h128v32h31v-63H801z" class="D"/><path d="M384 640l1 1-1-1z" class="C"/><path d="M416 640v32h-32v128h32v32h128v-32h32V672h-32v-32H416z" fill="#fff"/><path d="M544 640l1 1-1-1z" class="C"/><path d="M544 672h1v-31h31l-24-.999-7.397 2.317L544 672z" class="B"/><path d="M768 640l1 1-1-1z" class="C"/><path d="M768 672h1v-31h31l-24-.999-7.397 2.317L768 672m160-32v32h1l-1-32z" class="B"/><path d="M385 641v31h31v-31h-31m160 0v31h31v-31h-31m224 0v31h31v-31h-31z" class="D"/><path d="M352 672l1 1-1-1z" class="C"/><path d="M576 672v1h32l-32-1m160 0v1h32l-32-1m224 0v1h32l-32-1z" class="B"/><path d="M353 673v126h31V673h-31m223 0v126h32V673h-32m160 0v95h-95v32h95v96h32v-65h32v-30h-32V673h-32z" class="D"/><path d="M160 704v448h32V704h-32z" fill="#fff"/><path d="M448 704l1 1-1-1z" class="C"/><path d="M448 768h1v-63h31c-4.659-1.955-27.624-3.624-30.972.603C446.221 709.148 448 718.68 448 723v45z" class="B"/><path d="M832 704l1 1-1-1z" class="C"/><path d="M832 768h1v-63h31c-4.659-1.955-27.624-3.624-30.972.603C830.221 709.148 832 718.68 832 723v45z" class="B"/><path d="M449 705v63h63v-31h-32v-32h-31m384 0v63h63v-31h-32v-32h-31z" class="D"/><path d="M480 736v1h32l-32-1m384 0v1h32l-32-1m-224 32v32h1l-1-32z" class="B"/><path d="M352 799l1 1-1-1z" class="C"/><path d="M576 799v1h32l-32-1m384 0v1h32l-32-1z" class="B"/><path d="M384 800l1 1-1-1z" class="C"/><path d="M416 832v-1h-31v-30h31c-5.055-2.121-25.93-3.51-30.397.028-3.35 2.654-3.35 27.29 0 29.944 5.4 4.277 23.574 1.028 30.397 1.028z" class="B"/><path d="M544 800l1 1-1-1z" class="C"/><path d="M576 832v-1h-31v-30h31c-5.055-2.121-25.93-3.51-30.397.028-3.35 2.654-3.35 27.29 0 29.944 5.4 4.277 23.574 1.028 30.397 1.028m32-32v64h1v-44l-1-20z" class="B"/><path d="M609 800v64h31v-64h-31z" class="D"/><path d="M640 800v64h32v32h64v-96h-96z" fill="#fff"/><path d="M768 800v1h32l-32-1z" class="B"/><path d="M928 800l1 1-1-1z" class="C"/><path d="M960 832v-1h-31v-30h31c-5.055-2.121-25.93-3.51-30.397.028-3.35 2.654-3.35 27.29 0 29.944 5.4 4.277 23.574 1.028 30.397 1.028m32-32v352h1V903v-72l-1-31z" class="B"/><path d="M385 801v30h31v-30h-31m160 0v30h31v-30h-31m384 0v30h31v-30h-31z" class="D"/><path d="M384 831l1 1-1-1m160 0l1 1-1-1z" class="C"/><path d="M768 831v1h32l-32-1z" class="B"/><path d="M928 831l1 1-1-1z" class="C"/><path d="M416 832v32h1l-1-32z" class="B"/><path d="M417 832v32h127v-32H417z" class="D"/><path d="M800 832v32h1l-1-32z" class="B"/><path d="M801 832v32h127v-32H801z" class="D"/><path d="M320 864v1h32l-32-1z" class="B"/><path d="M640 864l1 1-1-1z" class="C"/><path d="M640 896h1v-31h31l-24-.999-7.397 2.317L640 896z" class="B"/><path d="M641 865v31h31v-31h-31z" class="D"/><path d="M352 896v1h32l-32-1m320 0v64h1v-44l-1-20z" class="B"/><path d="M673 896v64h31v-32h31v-32h-62z" class="D"/><path d="M735 896v32h1l-1-32z" class="B"/><path d="M928 896l1 1-1-1z" class="C"/><path d="M929 896v1h31l-31-1m-1 1v31h1l-1-31m-544 31v1h63v31c1.955-4.659 3.624-27.624-.603-30.972C442.852 926.221 433.32 928 429 928h-45z" class="B"/><path d="M447 928l1 1-1-1m417 0l1 1-1-1z" class="C"/><path d="M865 928v1h63l-20-1h-43m-1 1v31h1l-1-31m-416 31v1h64l-20-1h-44z" class="B"/><path d="M800 960l1 1-1-1z" class="C"/><path d="M801 960v1h63l-20-1h-43m-1 1v31h1l-1-31m-288 31v1h288l-26-1h-59-203z" class="B"/></svg>

<?xml version="1.0" standalone="yes"?>
<svg xmlns="http://www.w3.org/2000/svg" width="1152" height="1152">
<path style="fill:#010101; stroke:none;" d="M0 0L0 1152L160 1152L160 704L192 704L192 1152L960 1152L960 897L929 897C929 903.622 932.241 922.552 927.397 927.397C924.13 930.663 915.241 929 911 929L865 929C865 935.622 868.241 954.552 863.397 959.397C860.13 962.663 851.241 961 847 961L801 961C801 967.236 804.276 988.239 798.682 991.972C793.916 995.153 782.574 993 777 993L722 993L512 993L512 961L465 961C460.759 961 451.87 962.663 448.603 959.397C443.759 954.552 447 935.622 447 929L384 929L384 897L352 897L352 865L320 865L320 800L288 800L288 672L320 672L320 640L352 640L352 608L384 608L384 576L416 576L416 543L535 543L564 543C567.306 543 572.812 542.019 575.397 544.603C580.347 549.554 577 569.216 577 576L609 576L609 608L641 608L641 640L704 640L704 608L735 608L735 576L768 576L768 543L928 543L928 480L896 480L896 448L864 448L864 416L896 416L896 447L928 447L928 416L961 416L961 576L993 576L993 647C993 652.602 995.585 667.208 991.397 671.397C986.446 676.347 966.784 673 960 673L960 799C966.784 799 986.446 795.653 991.397 800.603C995.364 804.571 993 817.731 993 823L993 886L993 1152L1152 1152L1152 0L0 0z"/>
<path style="fill:#ffffff; stroke:none;" d="M544 64L544 96L512 96L512 128L480 128L480 192L512 192L512 224L544 224L544 256L608 256L608 224L640 224L640 192L672 192L672 160L640 160L640 192L576 192L576 160L544 160L544 96L576 96L576 64L544 64M288 256L288 288L256 288L256 352L224 352L224 416L192 416L192 704L224 704L224 416L256 416L256 352L288 352L288 288L320 288L320 352L352 352L352 416L384 416L384 448L416 448L416 384L512 384L512 352L736 352L736 384L800 384L800 416L864 416L864 384L800 384L800 352L832 352L832 288L864 288L864 352L896 352L896 416L928 416L928 352L896 352L896 288L864 288L864 256L832 256L832 288L800 288L800 352L736 352L736 320L512 320L512 352L416 352L416 384L384 384L384 352L352 352L352 288L320 288L320 256L288 256z"/>
<path style="fill:#111111; stroke:none;" d="M384 352L384 384L385 384L384 352M352 416L352 417L384 417L352 416z"/>
<path style="fill:#ffffff; stroke:none;" d="M864 416L864 448L896 448L896 480L928 480L928 544L768 544L768 576L736 576L736 608L704 608L704 640L640 640L640 608L608 608L608 576L576 576L576 544L416 544L416 576L384 576L384 608L352 608L352 640L320 640L320 672L288 672L288 800L320 800L320 864L352 864L352 896L384 896L384 928L448 928L448 960L512 960L512 992L800 992L800 960L864 960L864 928L928 928L928 896L960 896L960 1152L992 1152L992 800L960 800L960 672L992 672L992 576L960 576L960 416L928 416L928 448L896 448L896 416L864 416z"/>
<path style="fill:#111111; stroke:none;" d="M960 416L960 576L961 576L961 464C961 450.485 965.206 428.407 960 416M896 447L896 448L928 448L896 447M416 543L416 544L576 544C563.593 538.794 541.515 543 528 543L416 543M768 543L768 544L928 544C915.593 538.794 893.515 543 880 543L768 543M576 544L576 576L577 576L576 544M608 576L608 608L609 608L608 576M735 576L735 608L736 608L735 576M992 576L992 672L993 672L993 605L992 576z"/>
<path style="fill:#1f1f1f; stroke:none;" d="M416 608L417 609L416 608z"/>
<path style="fill:#111111; stroke:none;" d="M416 640C409.177 640 391.003 636.751 385.603 641.028C380.761 644.863 384 666.02 384 672C378.02 672 356.863 668.761 353.028 673.603C349.094 678.57 352 694.778 352 701L352 773C352 778.846 349.316 793.71 353.028 798.397C356.863 803.239 378.02 800 384 800L384 799L353 799L353 673C358.98 673 380.137 676.239 383.972 671.397C388.249 665.997 385 647.823 385 641C391.823 641 409.997 644.249 415.397 639.972C420.239 636.137 417 614.98 417 609L544 609C536.121 605.694 523.534 608 515 608L448 608C441.214 608 422.988 604.763 417.603 609.028C412.761 612.863 416 634.02 416 640M640 608L640 640L641 640L640 608z"/>
<path style="fill:#1f1f1f; stroke:none;" d="M800 608L801 609L800 608z"/>
<path style="fill:#111111; stroke:none;" d="M800 640L801 640L801 609L960 609C950.211 604.892 933.634 608 923 608L839 608L812 608C809.09 608 804.052 607.088 801.603 609.028C796.761 612.863 800 634.02 800 640z"/>
<path style="fill:#010101; stroke:none;" d="M417 609L417 640L544 640L544 609L417 609M801 609L801 640L929 640L929 672L960 672L960 609L801 609z"/>
<path style="fill:#1f1f1f; stroke:none;" d="M384 640L385 641L384 640z"/>
<path style="fill:#ffffff; stroke:none;" d="M416 640L416 672L384 672L384 800L416 800L416 832L544 832L544 800L576 800L576 672L544 672L544 640L416 640z"/>
<path style="fill:#1f1f1f; stroke:none;" d="M544 640L545 641L544 640z"/>
<path style="fill:#111111; stroke:none;" d="M544 672L545 672L545 641L576 641L552 640.001L544.603 642.318L544 672z"/>
<path style="fill:#1f1f1f; stroke:none;" d="M768 640L769 641L768 640z"/>
<path style="fill:#111111; stroke:none;" d="M768 672L769 672L769 641L800 641L776 640.001L768.603 642.318L768 672M928 640L928 672L929 672L928 640z"/>
<path style="fill:#010101; stroke:none;" d="M385 641L385 672L416 672L416 641L385 641M545 641L545 672L576 672L576 641L545 641M769 641L769 672L800 672L800 641L769 641z"/>
<path style="fill:#1f1f1f; stroke:none;" d="M352 672L353 673L352 672z"/>
<path style="fill:#111111; stroke:none;" d="M576 672L576 673L608 673L576 672M736 672L736 673L768 673L736 672M960 672L960 673L992 673L960 672z"/>
<path style="fill:#010101; stroke:none;" d="M353 673L353 799L384 799L384 673L353 673M576 673L576 799L608 799L608 673L576 673M736 673L736 768L641 768L641 800L736 800L736 896L768 896L768 831L800 831L800 801L768 801L768 673L736 673z"/>
<path style="fill:#ffffff; stroke:none;" d="M160 704L160 1152L192 1152L192 704L160 704z"/>
<path style="fill:#1f1f1f; stroke:none;" d="M448 704L449 705L448 704z"/>
<path style="fill:#111111; stroke:none;" d="M448 768L449 768L449 705L480 705C475.341 703.045 452.376 701.376 449.028 705.603C446.221 709.148 448 718.68 448 723L448 768z"/>
<path style="fill:#1f1f1f; stroke:none;" d="M832 704L833 705L832 704z"/>
<path style="fill:#111111; stroke:none;" d="M832 768L833 768L833 705L864 705C859.341 703.045 836.376 701.376 833.028 705.603C830.221 709.148 832 718.68 832 723L832 768z"/>
<path style="fill:#010101; stroke:none;" d="M449 705L449 768L512 768L512 737L480 737L480 705L449 705M833 705L833 768L896 768L896 737L864 737L864 705L833 705z"/>
<path style="fill:#111111; stroke:none;" d="M480 736L480 737L512 737L480 736M864 736L864 737L896 737L864 736M640 768L640 800L641 800L640 768z"/>
<path style="fill:#1f1f1f; stroke:none;" d="M352 799L353 800L352 799z"/>
<path style="fill:#111111; stroke:none;" d="M576 799L576 800L608 800L576 799M960 799L960 800L992 800L960 799z"/>
<path style="fill:#1f1f1f; stroke:none;" d="M384 800L385 801L384 800z"/>
<path style="fill:#111111; stroke:none;" d="M416 832L416 831L385 831L385 801L416 801C410.945 798.879 390.07 797.49 385.603 801.028C382.253 803.682 382.253 828.318 385.603 830.972C391.003 835.249 409.177 832 416 832z"/>
<path style="fill:#1f1f1f; stroke:none;" d="M544 800L545 801L544 800z"/>
<path style="fill:#111111; stroke:none;" d="M576 832L576 831L545 831L545 801L576 801C570.945 798.879 550.07 797.49 545.603 801.028C542.253 803.682 542.253 828.318 545.603 830.972C551.003 835.249 569.177 832 576 832M608 800L608 864L609 864L609 820L608 800z"/>
<path style="fill:#010101; stroke:none;" d="M609 800L609 864L640 864L640 800L609 800z"/>
<path style="fill:#ffffff; stroke:none;" d="M640 800L640 864L672 864L672 896L736 896L736 800L640 800z"/>
<path style="fill:#111111; stroke:none;" d="M768 800L768 801L800 801L768 800z"/>
<path style="fill:#1f1f1f; stroke:none;" d="M928 800L929 801L928 800z"/>
<path style="fill:#111111; stroke:none;" d="M960 832L960 831L929 831L929 801L960 801C954.945 798.879 934.07 797.49 929.603 801.028C926.253 803.682 926.253 828.318 929.603 830.972C935.003 835.249 953.177 832 960 832M992 800L992 1152L993 1152L993 903L993 831L992 800z"/>
<path style="fill:#010101; stroke:none;" d="M385 801L385 831L416 831L416 801L385 801M545 801L545 831L576 831L576 801L545 801M929 801L929 831L960 831L960 801L929 801z"/>
<path style="fill:#1f1f1f; stroke:none;" d="M384 831L385 832L384 831M544 831L545 832L544 831z"/>
<path style="fill:#111111; stroke:none;" d="M768 831L768 832L800 832L768 831z"/>
<path style="fill:#1f1f1f; stroke:none;" d="M928 831L929 832L928 831z"/>
<path style="fill:#111111; stroke:none;" d="M416 832L416 864L417 864L416 832z"/>
<path style="fill:#010101; stroke:none;" d="M417 832L417 864L544 864L544 832L417 832z"/>
<path style="fill:#111111; stroke:none;" d="M800 832L800 864L801 864L800 832z"/>
<path style="fill:#010101; stroke:none;" d="M801 832L801 864L928 864L928 832L801 832z"/>
<path style="fill:#111111; stroke:none;" d="M320 864L320 865L352 865L320 864z"/>
<path style="fill:#1f1f1f; stroke:none;" d="M640 864L641 865L640 864z"/>
<path style="fill:#111111; stroke:none;" d="M640 896L641 896L641 865L672 865L648 864.001L640.603 866.318L640 896z"/>
<path style="fill:#010101; stroke:none;" d="M641 865L641 896L672 896L672 865L641 865z"/>
<path style="fill:#111111; stroke:none;" d="M352 896L352 897L384 897L352 896M672 896L672 960L673 960L673 916L672 896z"/>
<path style="fill:#010101; stroke:none;" d="M673 896L673 960L704 960L704 928L735 928L735 896L673 896z"/>
<path style="fill:#111111; stroke:none;" d="M735 896L735 928L736 928L735 896z"/>
<path style="fill:#1f1f1f; stroke:none;" d="M928 896L929 897L928 896z"/>
<path style="fill:#111111; stroke:none;" d="M929 896L929 897L960 897L929 896M928 897L928 928L929 928L928 897M384 928L384 929L447 929L447 960C448.955 955.341 450.624 932.376 446.397 929.028C442.852 926.221 433.32 928 429 928L384 928z"/>
<path style="fill:#1f1f1f; stroke:none;" d="M447 928L448 929L447 928M864 928L865 929L864 928z"/>
<path style="fill:#111111; stroke:none;" d="M865 928L865 929L928 929L908 928L865 928M864 929L864 960L865 960L864 929M448 960L448 961L512 961L492 960L448 960z"/>
<path style="fill:#1f1f1f; stroke:none;" d="M800 960L801 961L800 960z"/>
<path style="fill:#111111; stroke:none;" d="M801 960L801 961L864 961L844 960L801 960M800 961L800 992L801 992L800 961M512 992L512 993L800 993L774 992L715 992L512 992z"/>
</svg>
